images/logo.svg

<?xml version="1.0" encoding="UTF-8" standalone="no"?>
<svg
   xmlns:dc="http://purl.org/dc/elements/1.1/"
   xmlns:cc="http://creativecommons.org/ns#"
   xmlns:rdf="http://www.w3.org/1999/02/22-rdf-syntax-ns#"
   xmlns:svg="http://www.w3.org/2000/svg"
   xmlns="http://www.w3.org/2000/svg"
   xmlns:sodipodi="http://sodipodi.sourceforge.net/DTD/sodipodi-0.dtd"
   xmlns:inkscape="http://www.inkscape.org/namespaces/inkscape"
   width="107px"
   height="33px"
   viewBox="0 0 107 33"
   version="1.1"
   id="svg2"
   inkscape:version="0.91 r13725"
   sodipodi:docname="logo.svg">
  <metadata
     id="metadata19">
    <rdf:RDF>
      <cc:Work
         rdf:about="">
        <dc:format>image/svg+xml</dc:format>
        <dc:type
           rdf:resource="http://purl.org/dc/dcmitype/StillImage" />
      </cc:Work>
    </rdf:RDF>
  </metadata>
  <defs
     id="defs17" />
  <sodipodi:namedview
     pagecolor="#ffffff"
     bordercolor="#666666"
     borderopacity="1"
     objecttolerance="10"
     gridtolerance="10"
     guidetolerance="10"
     inkscape:pageopacity="0"
     inkscape:pageshadow="2"
     inkscape:window-width="1366"
     inkscape:window-height="705"
     id="namedview15"
     showgrid="false"
     inkscape:zoom="3.2523364"
     inkscape:cx="30.934808"
     inkscape:cy="16.5"
     inkscape:window-x="-8"
     inkscape:window-y="-8"
     inkscape:window-maximized="1"
     inkscape:current-layer="Symbols" />
  <!-- Generator: Sketch 61.2 (89653) - https://sketch.com -->
  <title
     id="title4">Bolby</title>
  <desc
     id="desc6">Created with Sketch.</desc>
  <g
     id="Symbols"
     stroke="none"
     stroke-width="1"
     fill="none"
     fill-rule="evenodd">
    <g
       style="fill:#dd2a2b;fill-rule:nonzero"
       id="Bolby."
       transform="translate(-42.922414,-100.66379)">
      <g
         id="g11"
         transform="translate(42.448,61.44)"
         style="fill:#dd2a2b">
        <path
           style="fill:#dd2a2b"
           inkscape:connector-curvature="0"
           id="Bolby"
           d="m 12.348,25.56 c 2.976,0 5.262,-0.672 6.858,-2.016 1.596,-1.344 2.394,-3.228 2.394,-5.652 0,-1.248 -0.336,-2.37 -1.008,-3.366 -0.672,-0.996 -1.5,-1.71 -2.484,-2.142 C 18.852,12 19.53,11.388 20.142,10.548 20.754,9.708 21.06,8.712 21.06,7.56 21.06,5.256 20.316,3.48 18.828,2.232 17.34,0.984 15.072,0.36 12.024,0.36 l 0,0 -11.124,0 C 0.636,0.36 0.42,0.45 0.252,0.63 0.084,0.81 0,1.032 0,1.296 l 0,0 0,23.364 c 0,0.24 0.09,0.45 0.27,0.63 0.18,0.18 0.39,0.27 0.63,0.27 l 0,0 11.448,0 z m -1.08,-15.228 -4.5,0 0,-5.112 4.5,0 c 0.912,0 1.602,0.234 2.07,0.702 0.468,0.468 0.702,1.074 0.702,1.818 0,0.768 -0.24,1.392 -0.72,1.872 -0.48,0.48 -1.164,0.72 -2.052,0.72 l 0,0 z m 0.324,10.368 -4.824,0 0,-5.652 4.824,0 c 0.912,0 1.632,0.27 2.16,0.81 0.528,0.54 0.792,1.218 0.792,2.034 0,0.792 -0.258,1.458 -0.774,1.998 -0.516,0.54 -1.242,0.81 -2.178,0.81 l 0,0 z m 22.464,5.22 c 3.024,0 5.346,-0.702 6.966,-2.106 1.62,-1.404 2.502,-3.402 2.646,-5.994 0.048,-0.624 0.072,-1.164 0.072,-1.62 0,-0.456 -0.024,-0.996 -0.072,-1.62 C 43.524,12.036 42.618,10.05 40.95,8.622 39.282,7.194 36.984,6.48 34.056,6.48 c -2.928,0 -5.226,0.714 -6.894,2.142 -1.668,1.428 -2.574,3.414 -2.718,5.958 -0.024,0.312 -0.036,0.852 -0.036,1.62 l 4.44e-4,0.247556 c 0.0024,0.637629 0.01422,1.095111 0.03556,1.372444 0.144,2.592 1.026,4.59 2.646,5.994 1.62,1.404 3.942,2.106 6.966,2.106 z m 0,-4.536 c -0.984,0 -1.716,-0.306 -2.196,-0.918 -0.48,-0.612 -0.756,-1.554 -0.828,-2.826 l 0,0 -0.036,-1.44 0.036,-1.44 c 0.072,-1.248 0.348,-2.184 0.828,-2.808 0.48,-0.624 1.212,-0.936 2.196,-0.936 0.984,0 1.716,0.312 2.196,0.936 0.48,0.624 0.756,1.56 0.828,2.808 0.024,0.24 0.036,0.72 0.036,1.44 0,0.72 -0.012,1.2 -0.036,1.44 -0.072,1.272 -0.348,2.214 -0.828,2.826 -0.48,0.612 -1.212,0.918 -2.196,0.918 z m 18.54,4.176 c 0.264,0 0.48,-0.09 0.648,-0.27 0.168,-0.18 0.252,-0.39 0.252,-0.63 l 0,0 0,-23.76 C 53.496,0.636 53.412,0.42 53.244,0.252 53.076,0.084 52.86,0 52.596,0 l 0,0 -4.5,0 C 47.832,0 47.61,0.084 47.43,0.252 47.25,0.42 47.16,0.636 47.16,0.9 l 0,0 0,23.76 c 0,0.264 0.09,0.48 0.27,0.648 0.18,0.168 0.402,0.252 0.666,0.252 l 0,0 4.5,0 z M 69.3,25.92 c 2.328,0 4.158,-0.732 5.49,-2.196 1.332,-1.464 2.046,-3.552 2.142,-6.264 0.024,-0.312 0.036,-0.732 0.036,-1.26 0,-0.552 -0.012,-0.984 -0.036,-1.296 C 76.836,12.288 76.116,10.23 74.772,8.73 73.428,7.23 71.604,6.48 69.3,6.48 c -2.16,0 -3.9,0.696 -5.22,2.088 l 0,0 0,-7.668 C 64.08,0.636 63.996,0.42 63.828,0.252 63.66,0.084 63.444,0 63.18,0 l 0,0 -4.644,0 C 58.272,0 58.05,0.084 57.87,0.252 57.69,0.42 57.6,0.636 57.6,0.9 l 0,0 0,23.76 c 0,0.264 0.09,0.48 0.27,0.648 0.18,0.168 0.402,0.252 0.666,0.252 l 0,0 4.284,0 c 0.264,0 0.48,-0.09 0.648,-0.27 0.168,-0.18 0.252,-0.39 0.252,-0.63 l 0,0 0,-1.116 c 1.296,1.584 3.156,2.376 5.58,2.376 z m -2.088,-5.004 c -1.032,0 -1.8,-0.33 -2.304,-0.99 -0.504,-0.66 -0.78,-1.494 -0.828,-2.502 -0.024,-0.336 -0.036,-0.792 -0.036,-1.368 l 7.35e-4,-0.238775 c 0.0029,-0.461388 0.01469,-0.825796 0.03526,-1.093225 0.048,-0.936 0.33,-1.71 0.846,-2.322 0.516,-0.612 1.278,-0.918 2.286,-0.918 1.08,0 1.854,0.318 2.322,0.954 0.468,0.636 0.738,1.518 0.81,2.646 0.024,0.24 0.036,0.612 0.036,1.116 0,0.504 -0.012,0.876 -0.036,1.116 -0.072,1.128 -0.342,2.01 -0.81,2.646 -0.468,0.636 -1.242,0.954 -2.322,0.954 z M 87.336,32.4 c 0.504,0 0.876,-0.252 1.116,-0.756 l 0,0 L 98.64,8.064 C 98.688,7.92 98.712,7.764 98.712,7.596 98.712,7.404 98.634,7.23 98.478,7.074 98.322,6.918 98.136,6.84 97.92,6.84 l 0,0 -4.248,0 c -0.48,0 -0.84,0.252 -1.08,0.756 l 0,0 L 88.488,17.82 84.492,7.596 C 84.3,7.092 83.952,6.84 83.448,6.84 l 0,0 -4.284,0 c -0.216,0 -0.402,0.078 -0.558,0.234 -0.156,0.156 -0.258,0.354 -0.306,0.594 0,0.072 0.036,0.204 0.108,0.396 l 0,0 6.912,16.344 -2.844,6.768 c -0.048,0.144 -0.072,0.3 -0.072,0.468 0,0.216 0.072,0.396 0.216,0.54 0.144,0.144 0.324,0.216 0.54,0.216 l 0,0 4.176,0 z" />
        <path
           style="fill:#dd2a2b"
           inkscape:connector-curvature="0"
           id="."
           d="m 105.048,25.56 c 0.264,0 0.48,-0.09 0.648,-0.27 0.168,-0.18 0.252,-0.39 0.252,-0.63 l 0,0 0,-4.752 c 0,-0.264 -0.084,-0.486 -0.252,-0.666 -0.168,-0.18 -0.384,-0.27 -0.648,-0.27 l 0,0 -4.752,0 c -0.264,0 -0.486,0.09 -0.666,0.27 -0.18,0.18 -0.27,0.402 -0.27,0.666 l 0,0 0,4.752 c 0,0.264 0.09,0.48 0.27,0.648 0.18,0.168 0.402,0.252 0.666,0.252 l 0,0 4.752,0 z" />
      </g>
    </g>
    <text
       xml:space="preserve"
       style="font-style:normal;font-weight:normal;font-size:39.29662704px;line-height:125%;font-family:sans-serif;letter-spacing:0px;word-spacing:0px;fill:#000000;fill-opacity:1;stroke:none;stroke-width:1px;stroke-linecap:butt;stroke-linejoin:miter;stroke-opacity:1"
       x="3.2198441"
       y="30.003201"
       id="text4151"
       sodipodi:linespacing="125%"
       transform="scale(0.98241565,1.0178991)"><tspan
         sodipodi:role="line"
         id="tspan4153"
         x="3.2198441"
         y="30.003201"
         style="font-style:normal;font-variant:normal;font-weight:bold;font-stretch:normal;font-size:39.29662704px;line-height:125%;font-family:Roboto;-inkscape-font-specification:'Roboto, Bold';text-align:start;writing-mode:lr-tb;text-anchor:start;fill:#dd2a2b"><tspan
   style="fill:#ffffff"
   id="tspan4155">PION</tspan>.</tspan></text>
  </g>
</svg>

<?xml version="1.0" encoding="UTF-8"?>
<svg width="107px" height="33px" viewBox="0 0 107 33" version="1.1" xmlns="http://www.w3.org/2000/svg" xmlns:xlink="http://www.w3.org/1999/xlink">
    <!-- Generator: Sketch 61.2 (89653) - https://sketch.com -->
    <title>Bolby</title>
    <desc>Created with Sketch.</desc>
    <g id="Symbols" stroke="none" stroke-width="1" fill="none" fill-rule="evenodd">
        <g id="header" transform="translate(-42.000000, -61.000000)" fill-rule="nonzero">
            <g id="Bolby.">
                <g transform="translate(42.448000, 61.440000)">
                    <path d="M12.348,25.56 C15.324,25.56 17.61,24.888 19.206,23.544 C20.802,22.2 21.6,20.316 21.6,17.892 C21.6,16.644 21.264,15.522 20.592,14.526 C19.92,13.53 19.092,12.816 18.108,12.384 C18.852,12 19.53,11.388 20.142,10.548 C20.754,9.708 21.06,8.712 21.06,7.56 C21.06,5.256 20.316,3.48 18.828,2.232 C17.34,0.984 15.072,0.36 12.024,0.36 L12.024,0.36 L0.9,0.36 C0.636,0.36 0.42,0.45 0.252,0.63 C0.084,0.81 0,1.032 0,1.296 L0,1.296 L0,24.66 C0,24.9 0.09,25.11 0.27,25.29 C0.45,25.47 0.66,25.56 0.9,25.56 L0.9,25.56 L12.348,25.56 Z M11.268,10.332 L6.768,10.332 L6.768,5.22 L11.268,5.22 C12.18,5.22 12.87,5.454 13.338,5.922 C13.806,6.39 14.04,6.996 14.04,7.74 C14.04,8.508 13.8,9.132 13.32,9.612 C12.84,10.092 12.156,10.332 11.268,10.332 L11.268,10.332 Z M11.592,20.7 L6.768,20.7 L6.768,15.048 L11.592,15.048 C12.504,15.048 13.224,15.318 13.752,15.858 C14.28,16.398 14.544,17.076 14.544,17.892 C14.544,18.684 14.286,19.35 13.77,19.89 C13.254,20.43 12.528,20.7 11.592,20.7 L11.592,20.7 Z M34.056,25.92 C37.08,25.92 39.402,25.218 41.022,23.814 C42.642,22.41 43.524,20.412 43.668,17.82 C43.716,17.196 43.74,16.656 43.74,16.2 C43.74,15.744 43.716,15.204 43.668,14.58 C43.524,12.036 42.618,10.05 40.95,8.622 C39.282,7.194 36.984,6.48 34.056,6.48 C31.128,6.48 28.83,7.194 27.162,8.622 C25.494,10.05 24.588,12.036 24.444,14.58 C24.42,14.892 24.408,15.432 24.408,16.2 L24.4084444,16.4475556 C24.4108148,17.0851852 24.4226667,17.5426667 24.444,17.82 C24.588,20.412 25.47,22.41 27.09,23.814 C28.71,25.218 31.032,25.92 34.056,25.92 Z M34.056,21.384 C33.072,21.384 32.34,21.078 31.86,20.466 C31.38,19.854 31.104,18.912 31.032,17.64 L31.032,17.64 L30.996,16.2 L31.032,14.76 C31.104,13.512 31.38,12.576 31.86,11.952 C32.34,11.328 33.072,11.016 34.056,11.016 C35.04,11.016 35.772,11.328 36.252,11.952 C36.732,12.576 37.008,13.512 37.08,14.76 C37.104,15 37.116,15.48 37.116,16.2 C37.116,16.92 37.104,17.4 37.08,17.64 C37.008,18.912 36.732,19.854 36.252,20.466 C35.772,21.078 35.04,21.384 34.056,21.384 Z M52.596,25.56 C52.86,25.56 53.076,25.47 53.244,25.29 C53.412,25.11 53.496,24.9 53.496,24.66 L53.496,24.66 L53.496,0.9 C53.496,0.636 53.412,0.42 53.244,0.252 C53.076,0.084 52.86,0 52.596,0 L52.596,0 L48.096,0 C47.832,0 47.61,0.084 47.43,0.252 C47.25,0.42 47.16,0.636 47.16,0.9 L47.16,0.9 L47.16,24.66 C47.16,24.924 47.25,25.14 47.43,25.308 C47.61,25.476 47.832,25.56 48.096,25.56 L48.096,25.56 L52.596,25.56 Z M69.3,25.92 C71.628,25.92 73.458,25.188 74.79,23.724 C76.122,22.26 76.836,20.172 76.932,17.46 C76.956,17.148 76.968,16.728 76.968,16.2 C76.968,15.648 76.956,15.216 76.932,14.904 C76.836,12.288 76.116,10.23 74.772,8.73 C73.428,7.23 71.604,6.48 69.3,6.48 C67.14,6.48 65.4,7.176 64.08,8.568 L64.08,8.568 L64.08,0.9 C64.08,0.636 63.996,0.42 63.828,0.252 C63.66,0.084 63.444,0 63.18,0 L63.18,0 L58.536,0 C58.272,0 58.05,0.084 57.87,0.252 C57.69,0.42 57.6,0.636 57.6,0.9 L57.6,0.9 L57.6,24.66 C57.6,24.924 57.69,25.14 57.87,25.308 C58.05,25.476 58.272,25.56 58.536,25.56 L58.536,25.56 L62.82,25.56 C63.084,25.56 63.3,25.47 63.468,25.29 C63.636,25.11 63.72,24.9 63.72,24.66 L63.72,24.66 L63.72,23.544 C65.016,25.128 66.876,25.92 69.3,25.92 Z M67.212,20.916 C66.18,20.916 65.412,20.586 64.908,19.926 C64.404,19.266 64.128,18.432 64.08,17.424 C64.056,17.088 64.044,16.632 64.044,16.056 L64.0447347,15.8172245 C64.0476735,15.3558367 64.0594286,14.9914286 64.08,14.724 C64.128,13.788 64.41,13.014 64.926,12.402 C65.442,11.79 66.204,11.484 67.212,11.484 C68.292,11.484 69.066,11.802 69.534,12.438 C70.002,13.074 70.272,13.956 70.344,15.084 C70.368,15.324 70.38,15.696 70.38,16.2 C70.38,16.704 70.368,17.076 70.344,17.316 C70.272,18.444 70.002,19.326 69.534,19.962 C69.066,20.598 68.292,20.916 67.212,20.916 Z M87.336,32.4 C87.84,32.4 88.212,32.148 88.452,31.644 L88.452,31.644 L98.64,8.064 C98.688,7.92 98.712,7.764 98.712,7.596 C98.712,7.404 98.634,7.23 98.478,7.074 C98.322,6.918 98.136,6.84 97.92,6.84 L97.92,6.84 L93.672,6.84 C93.192,6.84 92.832,7.092 92.592,7.596 L92.592,7.596 L88.488,17.82 L84.492,7.596 C84.3,7.092 83.952,6.84 83.448,6.84 L83.448,6.84 L79.164,6.84 C78.948,6.84 78.762,6.918 78.606,7.074 C78.45,7.23 78.348,7.428 78.3,7.668 C78.3,7.74 78.336,7.872 78.408,8.064 L78.408,8.064 L85.32,24.408 L82.476,31.176 C82.428,31.32 82.404,31.476 82.404,31.644 C82.404,31.86 82.476,32.04 82.62,32.184 C82.764,32.328 82.944,32.4 83.16,32.4 L83.16,32.4 L87.336,32.4 Z" id="Bolby" fill="#FFFFFF"></path>
                    <path d="M105.048,25.56 C105.312,25.56 105.528,25.47 105.696,25.29 C105.864,25.11 105.948,24.9 105.948,24.66 L105.948,24.66 L105.948,19.908 C105.948,19.644 105.864,19.422 105.696,19.242 C105.528,19.062 105.312,18.972 105.048,18.972 L105.048,18.972 L100.296,18.972 C100.032,18.972 99.81,19.062 99.63,19.242 C99.45,19.422 99.36,19.644 99.36,19.908 L99.36,19.908 L99.36,24.66 C99.36,24.924 99.45,25.14 99.63,25.308 C99.81,25.476 100.032,25.56 100.296,25.56 L100.296,25.56 L105.048,25.56 Z" id="." fill="#FF4C60"></path>
                </g>
            </g>
        </g>
    </g>
</svg>
